icons/svg/git.svg

﻿<?xml version="1.0" encoding="utf-8"?>
<!DOCTYPE svg PUBLIC "-//W3C//DTD SVG 1.1//EN" "http://www.w3.org/Graphics/SVG/1.1/DTD/svg11.dtd">
<svg xmlns="http://www.w3.org/2000/svg" xmlns:xlink="http://www.w3.org/1999/xlink" version="1.1" baseProfile="full" width="24" height="24" viewBox="0 0 24.00 24.00" enable-background="new 0 0 24.00 24.00" xml:space="preserve">
	<path fill="#000000" fill-opacity="1" stroke-linejoin="round" d="M 2.59548,10.5858L 8.38353,4.79774L 10.0679,6.48216C 9.83331,7.35316 10.2158,8.2809 11,8.73229L 11,14.2676C 10.4022,14.6134 10,15.2597 10,16C 10,17.1046 10.8954,18 12,18C 13.1046,18 14,17.1046 14,16C 14,15.2597 13.5978,14.6134 13,14.2676L 13,9.41421L 15.0677,11.482C 15.0236,11.6472 15,11.8208 15,12C 15,13.1046 15.8954,14 17,14C 18.1046,14 19,13.1046 19,12C 19,10.8954 18.1046,10 17,10C 16.8208,10 16.6472,10.0236 16.482,10.0677L 13.932,7.51784C 14.1875,6.5694 13.7113,5.55369 12.7815,5.15899C 12.3539,4.97751 11.8986,4.95622 11.4823,5.06808L 9.79774,3.38353L 10.5858,2.59548C 11.3668,1.81444 12.6332,1.81444 13.4142,2.59548L 21.4045,10.5858C 22.1856,11.3668 22.1856,12.6332 21.4045,13.4142L 13.4142,21.4045C 12.6332,22.1856 11.3668,22.1856 10.5858,21.4045L 2.59548,13.4142C 1.81443,12.6332 1.81443,11.3668 2.59548,10.5858 Z "/>
</svg>

<svg xmlns="http://www.w3.org/2000/svg" version="1.1" baseProfile="full" width="24" height="24" viewBox="0 0 24.00 24.00" xml:space="preserve"><path fill="#000" fill-opacity="1" stroke-linejoin="round" d="M2.595 10.586l5.79-5.788 1.683 1.684c-.235.87.148 1.8.932 2.25v5.536c-.598.345-1 .992-1 1.732 0 1.105.895 2 2 2s2-.895 2-2c0-.74-.402-1.387-1-1.732V9.414l2.068 2.068c-.044.165-.068.34-.068.518 0 1.105.895 2 2 2s2-.895 2-2-.895-2-2-2c-.18 0-.353.024-.518.068l-2.55-2.55c.255-.95-.22-1.964-1.15-2.36-.428-.18-.883-.202-1.3-.09L9.798 3.384l.788-.79c.78-.78 2.047-.78 2.828 0l7.99 7.992c.782.78.782 2.047 0 2.828l-7.99 7.99c-.78.782-2.047.782-2.828 0l-7.99-7.99c-.782-.78-.782-2.047 0-2.828z"/></svg>
